X:1
T:Title
%%score { ( 1 4 5 ) | ( 2 3 6 ) }
L:1/8
Q:1/4=110
M:2/4
K:D
V:1 treble nm="Grand Piano"
V:4 treble 
V:5 treble 
V:2 bass 
V:3 bass 
V:6 bass 
V:1
 F2 F2 | A2 [B,DG]2 | [DF]4 | E4 | E2 E2 | G2 [G,A,F]2 | [CE]4[K:bass] | [F,A,D]4 | D2 D2 | F2 E2 | %10
w: ????~????~????? *||||||||||
 D4 | C4 | E2 A,2 | B,2 C2 | D2 [Ad]2 | [Ac]2 [GB]2 | [FA]2 [A,F]2 | [B,DG]2 [FA]2 | [GB]4 | %19
w: |||||||||
 [GB]4 | [EG]2 E2 | F2 [G,A,EG]2 | [FA]4 | A4 | F2 D2 | E2 [A,DF]2 | [EG]4 | G4 | E2 E2 | A2 A2 | %30
w: |||||||||||
 G4 | z4 | z z/ A/ F>G | [FA]>A F>G | A>A F>G | [FA]2 A,2 | z z/ A/ F>G | [FA]>A F>G | A>A G>F | %39
w: |||||||||
 [EG]4- | [EG]2 z2 | [GB]>B G>A | B>d [Ac]>B | [GB]2 A,2 | z z/ c/ B>A | z2 [EG]2- | [EG]2 z2 | %47
w: ||||||||
 F2 G2 | [FA]>A F>G | [FA]>A F>G | A>A F>G | [FA]2 A,2 | z z/ A/ A>A | [Ad]>d [df]>e | d>c [GB]>A | %55
w: ||||||||
 z2 [G,A,]2 | z z/ e/ e>d | [Ac]>c [GB]>A | c>c [GB]>[FA] | z2 [Ac]2- | [Ac]2 z2 | E2 z2 | %62
w: |||||||
 z z/ B/ A>G | F2 G2 | A>A [EG]>F | B2 E2- | E>G F>E | D4- | D4 |] %69
w: |||||||
V:2
 z2 D2 | z4 | D,2 F,2 | [E,G,A,C]4 | z2 C2 | z4 | C,2 E,2 | D,4 | D,2 z2 | D2 [F,A,]2 | D,2 F,2 | %11
 [E,G,A,]4 | C,2 [E,G,]2- | [E,G,]2 [E,G,A,]2 | D,2 [F,A,]2 | [E,G,]2 [D,G,B,]2 | D,2 F,2 | %17
 G,2 [D,F,A,]2 | D,2 G,2 | [D,G,B,]4 | z2 [E,G,A,]2- | [E,G,A,]2 z2 | D,2 F,2 | [F,A,F]4 | %24
 [D,D]2 [F,A,]2- | [F,A,]2 F,2 | C,2 [E,G,]2 | [E,G,A,E]4 | [C,C]2 [E,G,A,C]2 | %29
 [E,G,A,E]2 [E,G,A,C]2 | C,2 G,2 | [D,F,]4 | z z/[K:treble] F/ D>E | z z/ F/[K:bass] D>E | %34
 F>F D>E | D,2 F,2 | z z/[K:treble] F/ D>E | z z/ F/[K:bass] D>E | F>F E>D | C,2 E,2 | %40
 z z/[K:treble] G/ E>F | z z/[K:treble] G/ E>F | G>B[K:bass] z z/ G/ | D,2 F,2 | %44
 z z/[K:treble] A/ G>F | C,2 E,2 | z z/[K:treble] G/ F>E | [D,F,A,D]2 [E,G,A,E]2 | %48
 z z/[K:treble] F/ D>E | z z/ F/[K:bass] D>E | F>F D>E | D,2 F,2 | z z/[K:treble] F/ F>F | %53
 z z/ A/ z z/ c/ | A>A[K:bass] z z/ F/ | C,2 E,2 | z z/[K:treble] c/ c>B | z z/ A/ z z/ F/ | %58
 A>A [E,G,A,]2 | [C,G,A,]4 | z z/[K:treble] F/ E>D | [C,C]2 E2- | E>[K:treble]G F>E | %63
 [D,F,A,D]2 [E,G,A,E]2 | F>F[K:bass] z z/ D/ | [G,B,D]2 C2- | C>E D>C | [D,F,A,]4- | [D,F,A,]4 |] %69
V:3
 [D,D]2 [F,A,]2- | [F,A,D]2 G,2 | x4 | x4 | [D,C]2 [E,G,A,]2- | [E,G,A,C]2 E,2 | x4 | x4 | %8
 z2 [F,A,]2- | [F,A,]2 z2 | x4 | x4 | x4 | x4 | x4 | x4 | x4 | x4 | x4 | x4 | C,2 z2 | D2 E,2 | %22
 x4 | x4 | x4 | x4 | x4 | x4 | x4 | x4 | x4 | x4 | D,4[K:treble] | D,2[K:bass] [F,A,]2- | %34
 [F,A,]2 [F,A,]2 | x4 | F,4[K:treble] | D,2[K:bass] [F,A,]2- | [F,A,]2 [F,A,]2 | x4 | %40
 E,4[K:treble] | C,2[K:treble] [E,G,A,]2- | [E,G,A,]2[K:bass] [E,G,A,]2 | x4 | F,4[K:treble] | x4 | %46
 E,4[K:treble] | x4 | [D,F,A,]4[K:treble] | D,2[K:bass] [F,A,]2- | [F,A,]2 [F,A,]2 | x4 | %52
 F,4[K:treble] | D,2 [F,A,]2- | [F,A,]2[K:bass] [F,A,]2 | x4 | E,4[K:treble] | C,2 [E,G,A,]2- | %58
 [E,G,A,]2 z2 | x4 | z2[K:treble] [G,A,]2 | z2 [E,G,A,]2 | [E,G,]4[K:treble] | x4 | %64
 [F,A,]2[K:bass] D,2 | z2 [C,E,G,A,]2- | [C,E,G,A,]2 [E,G,A,]2 | x4 | x4 |] %69
V:4
 x4 | x4 | z2 A,2 | x4 | x4 | x4 | z2[K:bass] [G,A,]2 | x4 | x4 | x4 | z2 A,2 | x4 | x4 | x4 | x4 | %15
 x4 | x4 | x4 | z2 B,2 | x4 | x4 | x4 | z2 A,2 | x4 | x4 | x4 | z2 A,2 | x4 | x4 | x4 | z2 A,2 | %31
 F4- | F2 z2 | x4 | x4 | z2 [DF]2- | [DF]2 z2 | x4 | x4 | z2 [G,A,]2 | z z/ B/ G>A | x4 | x4 | %43
 z2 [FA]2- | [FA]2 z2 | [FA]2 [G,A,]2 | z z/ B/ A>G | x4 | x4 | x4 | x4 | z2 [DF]2- | [DF]2 z2 | %53
 x4 | x4 | [EG]4- | [EG]2 z2 | x4 | x4 | [Ac]2 z2 | z z/ A/ G>F | z2 G2- | G2 z2 | x4 | x4 | x4 | %66
 x4 | x4 | x4 |] %69
V:5
 x4 | x4 | x4 | x4 | x4 | x4 | x2[K:bass] x2 | x4 | x4 | x4 | x4 | x4 | x4 | x4 | x4 | x4 | x4 | %17
 x4 | x4 | x4 | x4 | x4 | x4 | x4 | x4 | x4 | x4 | x4 | x4 | x4 | x4 | x4 | F,4 | x4 | x4 | x4 | %36
 A,4 | x4 | x4 | x4 | [G,A,]4 | x4 | x4 | x4 | A,4 | x4 | [G,A,]4 | x4 | x4 | x4 | x4 | x4 | A,4 | %53
 x4 | x4 | x4 | [G,A,]4 | x4 | x4 | x4 | [G,A,]2 z2 | x4 | A,4 | x4 | x4 | x4 | x4 | x4 | x4 |] %69
V:6
 x4 | x4 | x4 | x4 | x4 | x4 | x4 | x4 | x4 | x4 | x4 | x4 | x4 | x4 | x4 | x4 | x4 | x4 | x4 | %19
 x4 | x4 | x4 | x4 | x4 | x4 | x4 | x4 | x4 | x4 | x4 | x4 | x4 | x3/2[K:treble] x5/2 | %33
 x2[K:bass] x2 | x4 | x4 | x3/2[K:treble] x5/2 | x2[K:bass] x2 | x4 | x4 | x3/2[K:treble] x5/2 | %41
 x3/2[K:treble] x5/2 | x2[K:bass] x2 | x4 | x3/2[K:treble] x5/2 | x4 | x3/2[K:treble] x5/2 | x4 | %48
 x3/2[K:treble] x5/2 | x2[K:bass] x2 | x4 | x4 | x3/2[K:treble] x5/2 | x4 | x2[K:bass] x2 | x4 | %56
 x3/2[K:treble] x5/2 | x4 | x4 | x4 | C,4[K:treble] | x4 | x3/2[K:treble] x5/2 | x4 | %64
 x2[K:bass] x2 | x4 | x4 | x4 | x4 |] %69

